!!!COM: Corelli, Arcangelo
!!!OPR: Sonata da chiesa
!!!OPS: 1
!!!ONM: 2
!!!OMV: 3
!!!OMD: Adagio
**kern	**harm	**fb	**kern	**kern
*part3	*above	*part3	*part2	*part1
*staff3	*	*	*staff2	*staff1
*I"Violone & Organo	*	*	*I"Violino II	*I"Violino I
*clefF4	*	*	*clefG2	*clefG2
*k[f#]	*	*	*k[f#]	*k[f#]
*M3/4	*	*	*M3/4	*M3/4
*MM72	*	*	*MM72	*MM72
=1	=1	=1	=1	=1
4r	.	.	4r	4r
4E	e.i{	.	4ee	4gg
4BB	V	#	4dd#X	4ff#
=2	=2	=2	=2	=2
2E	i	.	2ee	2gg
4E	.	.	4ee	4gg
=3	=3	=3	=3	=3
2.AA	iio6	6	4.ff#	4.aa
.	.	.	8ggL	8bbL
.	.	.	8ff#	8aa
.	.	.	8eeJ	8ggJ
=4	=4	=4	=4	=4
2.BB	V|HC}	#	2.dd#X	2.ff#
=5	=5	=5	=5	=5
2G	i6{	6	2b	2ee
4F#	VII6	6	4a	4dd
=6	=6	=6	=6	=6
2E	VI6	6	2g	2cc
[4D	v6	6	[4f#	[4b
=7	=7	=7	=7	=7
4D]	.	.	4f#]	4b]
2C	iv6	6	2e	2a
=8	=8	=8	=8	=8
4BB	V|HC}	#	4d#X	4b
4B	{	#	4ff#	4dd#X
4A	V2	#4| 2	4ff#	4dd#
=9	=9	=9	=9	=9
2G	i6	6	2b	2ee
4D#X	V6	6	4b	4ff#
=10	=10	=10	=10	=10
2E	i	.	2b	2gg
[4F#	v.V	#	[4a#X	[4ff#
=11	=11	=11	=11	=11
4F#]	.	.	4a#]	4ff#]
2G	iv6	6	2b	2ee
=12	=12	=12	=12	=12
2F#	V|HC}	#	4a#X	2ff#
.	{	.	[2ff#	.
4F#	.	.	.	4a#X
=13	=13	=13	=13	=13
2G#X	IV6(2)	7	4ff#]	2b
.	IV6	6	[2ee	.
4A#X	#viio	.	.	4cc#X
=14	=14	=14	=14	=14
2B	i(4)	4	4ee]	2f#
.	i|EC}{	3	[2dd	.
4D	i6	.	.	4f#
=15	=15	=15	=15	=15
2E	III.IV6(2)	7	4dd]	2g
.	IV6	-r6	[2cc	.
4F#	viio	-r5	.	4a
=16	=16	=16	=16	=16
2G	I(4)	5 4	4cc]	2d
.	I|EC}{	3	[2b	.
4D	v.i6	6	.	4ff#
=17	=17	=17	=17	=17
4E	iv	.	4b]	8eeL
.	.	.	.	8ddJ
2F#	V(4)	#5\ #r4	4.b	2cc#X
.	V	.	8a#X	.
=18	=18	=18	=18	=18
2BB	i|PAC}	-	2b	4b
.	{	.	.	[2bb
4BB	i.V	.	4dd#X	.
=19	=19	=19	=19	=19
2C#X	IV6(2)	7	2ee	4bb]
.	IV6	6	.	[2aa
4D#X	#viio	5	4ff#	.
=20	=20	=20	=20	=20
2E	i(4)	5 4	2b	4aa]
.	i|EC}{	3	.	[2gg
4G	i6	6	4b	.
=21	=21	=21	=21	=21
2A	VI.IV6(2)	7	2cc	4gg]
.	IV6	-r6	.	[2ffn
4B	viio	-r5	4dd	.
=22	=22	=22	=22	=22
2c	I(4)	-4	2g	4ff]
.	I|EC}{	3	.	[2ee
4G	i.i6	6	4bb	.
=23	=23	=23	=23	=23
4A	iv	.	8aaL	4ee]
.	.	.	8ggJ	.
2B	V(4)	5 4	2ff#	4.ee
.	V	#	.	8dd#X
=24	=24	=24	=24	=24
2E	i|PAC}{	5	2ee	4ee
.	VI6	-6	.	[2cc
4C	iv6	6	4a	.
=25	=25	=25	=25	=25
2D	v6(2)	7	2f#	4cc]
.	v6	6	.	[2b
4BB	III6	6	4g	.
=26	=26	=26	=26	=26
2C	iv6(2)	7	2e	4b]
.	iv6	6	.	[2a
4AA	iio6	6	4f#	.
=27	=27	=27	=27	=27
2BB	V7	7 #	2d#X	2a]
[4EE	i	.	[4e	[4g
=28	=28	=28	=28	=28
4EE]	.	.	4e]	4g]
2BB	V(4)	5 4	4.e	2f#
.	V	#	8d#X	.
=29	=29	=29	=29	=29
2.EE	i|PAC}	.	2.e	2.e
=||	=||	=||	=||	=||
*-	*-	*-	*-	*-
!!!system-decoration: [{s1,s2},s3]
!!!YEM: CC BY-NC-SA 4.0; CCARH; DCML